src/standard/command-line.svg

<svg xmlns="http://www.w3.org/2000/svg" viewBox="0 0 36 36">
  <path d="m11.44 25.44 7-7a.61.61 0 0 0 0-.88l-7-7a.63.63 0 1 0-.88.88L17.12 18l-6.56 6.56a.63.63 0 1 0 .88.88Zm6.94-.52a.63.63 0 0 0 .62.63h7a.63.63 0 0 0 0-1.25h-7a.62.62 0 0 0-.62.62Z"/>
  <path d="M31 4.38H5a.62.62 0 0 0-.62.62v26a.62.62 0 0 0 .62.62h26a.62.62 0 0 0 .62-.62V5a.62.62 0 0 0-.62-.62Zm-.62 26H5.62V5.62h24.76Z"/>
</svg>

<svg id="f857ed94-123a-4516-8566-22e9c12e6077" data-name="Icon" xmlns="http://www.w3.org/2000/svg" viewBox="0 0 36 36">
  <title>Command line icon - Black</title>
<desc>developer, engineer, deploy, software, write, app, bracket, slash, script, pull, push, squash, software and technologies</desc>
<metadata><?xpacket begin="﻿" id="W5M0MpCehiHzreSzNTczkc9d"?>
<x:xmpmeta xmlns:x="adobe:ns:meta/" x:xmptk="Adobe XMP Core 8.0-c001 1.000000, 0000/00/00-00:00:00        ">
   <rdf:RDF xmlns:rdf="http://www.w3.org/1999/02/22-rdf-syntax-ns#">
      <rdf:Description rdf:about=""
            xmlns:xmp="http://ns.adobe.com/xap/1.0/"
            xmlns:dc="http://purl.org/dc/elements/1.1/"
            xmlns:cq="http://www.day.com/jcr/cq/1.0"
            xmlns:tiff="http://ns.adobe.com/tiff/1.0/">
         <xmp:rhcc-effective-on>2023-12-08T17:42:52.328Z</xmp:rhcc-effective-on>
         <xmp:rhcc-metadata-complete-moderator>pending</xmp:rhcc-metadata-complete-moderator>
         <xmp:rhcc-translation-id>TRA43039328-7cd3-4f9d-bb93-a80368a95db3</xmp:rhcc-translation-id>
         <xmp:brand-content-type>Icon</xmp:brand-content-type>
         <xmp:CreateDate>2023-12-08T17:42:52.328Z</xmp:CreateDate>
         <xmp:rhcc-effective-on-set-on-upload>true</xmp:rhcc-effective-on-set-on-upload>
         <xmp:rhcc-metadata-complete-uploader>pending</xmp:rhcc-metadata-complete-uploader>
         <xmp:rhcc-file-last-modified>2023-12-08T17:43:01.892Z</xmp:rhcc-file-last-modified>
         <xmp:rhcc-audience>rhcc-audience:internal</xmp:rhcc-audience>
         <xmp:rhcc-rights-restricted>no</xmp:rhcc-rights-restricted>
         <xmp:brand-content-subtype>Icon</xmp:brand-content-subtype>
         <xmp:rhcc-derivative-id>DER43039328-7cd3-4f9d-bb93-a80368a95db3</xmp:rhcc-derivative-id>
         <xmp:brand-logo-color>Black</xmp:brand-logo-color>
         <xmp:rhcc-notify-portal-subscribers-on-change>yes</xmp:rhcc-notify-portal-subscribers-on-change>
         <dc:format>image/svg+xml</dc:format>
         <dc:modified>2024-02-09T20:15:57.870Z</dc:modified>
         <dc:title>
            <rdf:Alt>
               <rdf:li xml:lang="x-default">Command line icon - Black</rdf:li>
            </rdf:Alt>
         </dc:title>
         <dc:description>
            <rdf:Alt>
               <rdf:li xml:lang="x-default">developer, engineer, deploy, software, write, app, bracket, slash, script, pull, push, squash, software and technologies</rdf:li>
            </rdf:Alt>
         </dc:description>
         <cq:lastReplicationAction_scene7>Activate</cq:lastReplicationAction_scene7>
         <cq:lastReplicationAction_publish>Activate</cq:lastReplicationAction_publish>
         <cq:lastReplicated_publish>2024-02-09T21:52:59.294Z</cq:lastReplicated_publish>
         <cq:lastReplicatedBy>workflow-process-service</cq:lastReplicatedBy>
         <cq:lastReplicationAction>Activate</cq:lastReplicationAction>
         <cq:lastReplicatedBy_publish>workflow-process-service</cq:lastReplicatedBy_publish>
         <cq:isDelivered>true</cq:isDelivered>
         <cq:lastReplicated>2024-02-09T21:52:59.294Z</cq:lastReplicated>
         <cq:lastReplicatedBy_scene7>workflow-process-service</cq:lastReplicatedBy_scene7>
         <cq:lastReplicated_scene7>2024-02-09T21:52:59.294Z</cq:lastReplicated_scene7>
         <tiff:ImageLength>36</tiff:ImageLength>
         <tiff:ImageWidth>36</tiff:ImageWidth>
      </rdf:Description>
   </rdf:RDF>
</x:xmpmeta>
                                                                                                    
                                                                                                    
                                                                                                    
                                                                                                    
                                                                                                    
                                                                                                    
                                                                                                    
                                                                                                    
                                                                                                    
                                                                                                    
                                 
<?xpacket end="w"?></metadata>
<g>
    <path d="M11.44,25.44l7-7a.61.61,0,0,0,0-.88l-7-7a.63.63,0,1,0-.88.88L17.12,18l-6.56,6.56A.63.63,0,1,0,11.44,25.44Z"/>
    <path d="M18.38,24.92a.63.63,0,0,0,.62.63h7a.63.63,0,0,0,0-1.25H19A.62.62,0,0,0,18.38,24.92Z"/>
    <path d="M31,4.38H5A.62.62,0,0,0,4.38,5V31a.62.62,0,0,0,.62.62H31a.62.62,0,0,0,.62-.62V5A.62.62,0,0,0,31,4.38Zm-.62,26H5.62V5.62H30.38Z"/>
  </g>
</svg>
